public/images/isotipoflux.svg

<svg width="284" height="280" viewBox="0 0 284 280" fill="none" xmlns="http://www.w3.org/2000/svg">
<path d="M70.041 0.861495C46.8274 1.36179 46.4272 1.36178 40.8239 4.16342C33.8198 7.56541 26.9158 14.9697 21.4125 24.9756C19.2112 29.078 13.4078 39.284 8.70509 47.5888C3.90228 55.9937 0 63.0979 0 63.3981C0 63.6983 53.031 63.7983 117.869 63.6983C253.248 63.3981 240.741 64.2986 251.647 53.3922C257.551 47.4888 260.052 43.4864 275.461 15.8703C279.263 8.96623 282.765 2.86266 283.366 2.16225C283.966 1.46184 283.866 0.761433 283.166 0.361198C281.965 -0.339211 109.164 0.0610267 70.041 0.861495Z" fill="url(#paint0_linear_iso)"/>
<path d="M119.169 77.0057C95.8555 81.6084 76.3441 97.0174 66.3382 118.93C61.3353 129.737 59.7344 137.341 59.6343 149.448C59.4342 167.659 61.7355 173.962 79.7461 205.481C81.9474 209.283 86.9503 218.088 90.8526 224.992C98.0568 237.8 120.27 276.322 121.971 279.024C122.771 280.325 123.071 280.325 124.272 279.024C126.974 276.122 149.887 235.498 151.988 229.695C154.89 221.59 154.79 212.885 151.588 204.38C150.187 200.678 148.686 197.176 148.186 196.576C146.285 194.174 116.067 140.943 116.067 139.943C116.067 139.242 128.375 138.942 153.589 138.942H191.111L197.715 136.34C208.021 132.138 211.723 127.635 226.632 101.42C233.836 88.8126 239.74 77.9062 239.94 77.2058C240.24 76.1052 229.734 75.905 181.906 76.0051C149.787 76.1052 121.571 76.5054 119.169 77.0057Z" fill="url(#paint1_linear_iso)"/>
<defs>
<linearGradient id="paint0_linear_iso" x1="283.76" y1="31.8679" x2="-437.381" y2="31.8679" gradientUnits="userSpaceOnUse">
<stop offset="0.184799" stop-color="#1B4FFF"/>
<stop offset="0.921794" stop-color="#102F99"/>
</linearGradient>
<linearGradient id="paint1_linear_iso" x1="239.946" y1="177.991" x2="-218.322" y2="177.991" gradientUnits="userSpaceOnUse">
<stop offset="0.184799" stop-color="#1B4FFF"/>
<stop offset="0.921794" stop-color="#102F99"/>
</linearGradient>
</defs>
</svg>

<svg xmlns="http://www.w3.org/2000/svg" width="284" height="280" fill="none" viewBox="0 0 284 280"><path fill="url(#a)" d="M70.041.861c-23.214.5-23.614.5-29.217 3.302C33.82 7.565 26.916 14.97 21.413 24.976c-2.202 4.102-8.005 14.308-12.708 22.613C3.902 55.994 0 63.098 0 63.399c0 .3 53.031.4 117.869.3 135.379-.3 122.872.6 133.778-10.307 5.904-5.903 8.405-9.906 23.814-37.522 3.802-6.904 7.304-13.007 7.905-13.708.6-.7.5-1.4-.2-1.8-1.201-.701-174.002-.301-213.125.5"/><path fill="url(#b)" d="M119.169 77.006c-23.313 4.602-42.825 20.011-52.83 41.924-5.004 10.807-6.605 18.411-6.705 30.518-.2 18.211 2.102 24.514 20.112 56.033 2.201 3.802 7.204 12.607 11.107 19.511 7.204 12.808 29.417 51.33 31.118 54.032.8 1.301 1.1 1.301 2.301 0 2.702-2.902 25.615-43.526 27.716-49.329 2.902-8.105 2.802-16.81-.4-25.315-1.401-3.702-2.902-7.204-3.402-7.804-1.901-2.402-32.119-55.633-32.119-56.633 0-.701 12.308-1.001 37.522-1.001h37.522l6.604-2.602c10.306-4.202 14.008-8.705 28.917-34.92 7.204-12.607 13.108-23.514 13.308-24.214.3-1.1-10.206-1.301-58.034-1.2-32.119.1-60.335.5-62.737 1"/><defs><linearGradient id="a" x1="283.76" x2="-437.381" y1="31.868" y2="31.868" gradientUnits="userSpaceOnUse"><stop offset=".185" stop-color="#1b4fff"/><stop offset=".922" stop-color="#102f99"/></linearGradient><linearGradient id="b" x1="239.946" x2="-218.322" y1="177.991" y2="177.991" gradientUnits="userSpaceOnUse"><stop offset=".185" stop-color="#1b4fff"/><stop offset=".922" stop-color="#102f99"/></linearGradient></defs></svg>
